X:502
T:Da Bonnie Polka
C:Joe Buchanan's Scottish Tome - Page 476.2
I:476 2
R:Polka
Z:Carl Allison
L:1/4
M:C
K:D
(A/G/) | "D"F A "G"G B | "D"A f "Bm"f/a/f/d/ | "Em"B e "A7"e/f/e/c/ | "D"A d d "A7"(A/G/) |
"D"F A "G"G B | "D"A f "Bm"f/a/f/d/ | "Em"B e "A7"e/f/e/c/ | "D"A d d> d |
"Bm"d B B/d/c/B/ | "F#m"A F F A | "Em"G E "A7"E/F/G/E/ | "D"F D D d |
"Bm"d B B/d/c/B/ | "F#m"A F F A | "Em"G E "A7"E/F/G/E/ | "D"F D D :|
